X: 7
T: Blue Angel
C: Liam King
M: 6/8
L: 1/8
R: jig
K: Dmaj
|: A |\
f2 d dcd | Bgg Aff | Gee Fdd | cBA bag |
f2 d dcd | Bgg A2 f | Gee F2 d | cBc d2 :|
K: Bmin
|: c |\
fdB B^AB | fdB Bcd | c^AF F^EF | fgf edc |
fdB B^AB | fdB BB/c/d | c^AF gfe | dB^A B2 :|
